svg/u1f431.svg

<svg viewBox="0 0 128 128" xmlns="http://www.w3.org/2000/svg">
  <defs/>
  <path d="M114.67,70.19 C112.71,44.22 94.44,26.3 64,26.3 C33.56,26.3 15.25,45.33 13.45,71.31 C12.4,86.45 18.03,99.94 29.36,107.63 C36.82,112.7 47.24,115.51 64.13,115.51 C81.31,115.51 91.16,111.8 98.62,106.78 C111.05,98.43 115.8,85.11 114.67,70.19 Z" fill="#FFC022"/>
  <path d="M53.72,42.6 C46.3,23.4 30.1,10.34 23.87,8.39 C21.52,7.65 18.57,7.58 17.24,9.74 C13.88,15.19 9.58,32.69 19.09,57.52 L53.72,42.6 Z" fill="#FFC022"/>
  <path d="M36.12,34.21 C37.66,32.92 38.41,31.66 36.72,29.05 C34.1,25 29.39,20.27 27.56,18.82 C24.56,16.44 22.24,15.64 21.35,19.47 C19.7,26.55 19.83,36.16 21.6,41.46 C22.22,43.33 24.14,44.32 25.62,43.03 L36.12,34.21 Z" fill="#FFD1D1"/>
  <path d="M54.12,45.02 C55.25,45.98 57.54,45.84 58.87,44.3 C60.48,42.43 62.16,36.13 61.11,26.39 C56.44,26.56 52.02,27.23 47.9,28.36 C51.23,33.82 52.03,43.24 54.12,45.02 Z" fill="#FF9B31"/>
  <path d="M73.88,45.02 C72.75,45.98 70.46,45.84 69.13,44.3 C67.52,42.43 65.84,36.13 66.89,26.39 C71.56,26.56 75.98,27.23 80.1,28.36 C76.77,33.82 75.97,43.24 73.88,45.02 Z" fill="#FF9B31"/>
  <path d="M79.9,29.22 C87.98,16.81 99.28,8.47 103.97,6.98 C106.29,6.24 108.99,6.36 110.31,8.53 C113.63,13.98 116.44,30.77 109.89,54.28 L85.96,42.74 L79.9,29.22 Z" fill="#FFC022"/>
  <path d="M97.55,38.23 C99.98,40.66 101.96,42.29 103.39,43.84 C104.34,44.87 106.08,44.4 106.36,43.02 C108.81,31.22 108.03,21.16 106.36,18.52 C105.56,17.26 104.07,16.93 102.71,17.39 C100.27,18.2 94.05,22.84 89.66,29.61 C89.15,30.4 89.34,31.46 90.12,31.99 C91.7,33.06 94.46,35.13 97.55,38.23 Z" fill="#FFD1D1"/>
  <path d="M55.67,77.75 C55.62,74.67 60.04,73.2 64.21,73.13 C68.39,73.06 72.89,74.42 72.94,77.5 C72.99,80.58 67.72,84.63 64.4,84.63 C61.09,84.63 55.73,80.82 55.67,77.75 Z"/>
  <path d="M7.551,69.764 Q7.732,69.807 8.113,69.888 Q14.235,71.202 21.703,74.745 Q23.058,75.388 22.415,76.743 Q22.094,77.421 21.594,77.599 Q21.095,77.777 20.417,77.455 Q13.264,74.062 7.484,72.822 Q5.967,72.496 5.545,71.987 Q5.067,71.41 5.116,70.882 Q5.165,70.354 5.743,69.875 Q6.717,69.067 7.551,69.764 Z" fill="#9E9E9E"/>
  <path d="M2.406,81.444 Q9.196,79.075 20.622,81.103 Q22.099,81.365 21.837,82.842 Q21.706,83.581 21.271,83.884 Q20.836,84.188 20.098,84.057 Q9.444,82.165 3.394,84.276 Q1.978,84.77 1.484,83.354 Q1.237,82.646 1.467,82.168 Q1.698,81.691 2.406,81.444 Z" fill="#9E9E9E"/>
  <path d="M8.135,90.95 Q11.132,89.441 21.349,88.546 Q22.096,88.48 22.503,88.821 Q22.909,89.162 22.974,89.909 Q23.105,91.403 21.611,91.534 Q11.968,92.379 9.485,93.63 Q8.815,93.967 8.311,93.801 Q7.808,93.635 7.47,92.965 Q6.796,91.625 8.135,90.95 Z" fill="#9E9E9E"/>
  <path d="M121.014,69.003 Q117.924,69.302 107.674,75.153 Q106.371,75.896 105.627,74.594 Q104.884,73.291 106.186,72.547 Q116.996,66.378 120.726,66.017 Q122.219,65.872 122.363,67.366 Q122.508,68.859 121.014,69.003 Z" fill="#9E9E9E"/>
  <path d="M122.314,79.986 Q117.435,79.641 106.682,81.927 Q105.215,82.239 104.903,80.772 Q104.591,79.305 106.058,78.993 Q117.225,76.619 122.526,76.994 Q124.022,77.1 123.916,78.596 Q123.81,80.092 122.314,79.986 Z" fill="#9E9E9E"/>
  <path d="M119.949,90.464 Q115.323,88.826 105.589,88.298 Q104.091,88.217 104.172,86.719 Q104.253,85.221 105.751,85.302 Q115.917,85.854 120.951,87.636 Q122.365,88.137 121.864,89.551 Q121.363,90.965 119.949,90.464 Z" fill="#9E9E9E"/>
  <path d="M96.09,66.37 C95.75,71.88 92.33,74.91 88.44,74.91 C84.55,74.91 81.4,71.03 81.4,66.25 C81.4,61.47 84.68,57.54 89.05,57.78 C94.12,58.07 96.37,61.87 96.09,66.37 Z" fill="#000200"/>
  <path d="M46,65.81 C46.78,71.42 44.42,74.84 40.51,75.63 C36.6,76.42 33.25,73.79 32.28,68.99 C31.3,64.18 33.18,59.67 37.62,59.02 C42.77,58.27 45.36,61.22 46,65.81 Z" fill="#000200"/>
  <path d="M44.99,85.16 C42.42,86.83 45.46,90.7 47.24,92.01 C49.02,93.32 52.22,94.93 56.91,94.45 C62.45,93.89 64.04,89.76 64.04,89.76 C64.04,89.76 66.01,94.36 72.86,94.55 C79.81,94.74 81.96,90.98 82.9,89.86 C83.84,88.73 84.78,85.82 83.18,84.7 C81.58,83.57 80.46,84.98 78.77,87.33 C77.08,89.68 73.61,90.99 70.23,89.39 C66.85,87.79 66.66,82.35 66.66,82.35 L61.87,82.63 C61.87,82.63 61.12,87.32 58.96,88.82 C56.8,90.32 51.64,90.7 49.48,87.41 C48.53,85.95 47.15,83.75 44.99,85.16 Z"/>
</svg>

<svg viewBox="0 0 128 128" xmlns="http://www.w3.org/2000/svg">
  <path d="M114.67,70.19C112.71,44.22,94.44,26.3,64,26.3S15.25,45.33,13.45,71.31 c-1.05,15.14,4.58,28.63,15.91,36.32c7.46,5.07,17.88,7.88,34.77,7.88c17.18,0,27.03-3.71,34.49-8.73 C111.05,98.43,115.8,85.11,114.67,70.19z" fill="#FFC022"/>
  <g>
    <path d="M53.72,42.6C46.3,23.4,30.1,10.34,23.87,8.39c-2.35-0.74-5.3-0.81-6.63,1.35 c-3.36,5.45-7.66,22.95,1.85,47.78L53.72,42.6z" fill="#FFC022"/>
    <path d="M36.12,34.21c1.54-1.29,2.29-2.55,0.6-5.16c-2.62-4.05-7.33-8.78-9.16-10.23 c-3-2.38-5.32-3.18-6.21,0.65c-1.65,7.08-1.52,16.69,0.25,21.99c0.62,1.87,2.54,2.86,4.02,1.57L36.12,34.21z" fill="#FFD1D1"/>
  </g>
  <path d="M54.12,45.02c1.13,0.96,3.42,0.82,4.75-0.72c1.61-1.87,3.29-8.17,2.24-17.91 c-4.67,0.17-9.09,0.84-13.21,1.97C51.23,33.82,52.03,43.24,54.12,45.02z" fill="#FF9B31"/>
  <path d="M73.88,45.02c-1.13,0.96-3.42,0.82-4.75-0.72c-1.61-1.87-3.29-8.17-2.24-17.91 c4.67,0.17,9.09,0.84,13.21,1.97C76.77,33.82,75.97,43.24,73.88,45.02z" fill="#FF9B31"/>
  <path d="M79.9,29.22c8.08-12.41,19.38-20.75,24.07-22.24c2.32-0.74,5.02-0.62,6.34,1.55 c3.32,5.45,6.13,22.24-0.42,45.75L85.96,42.74L79.9,29.22z" fill="#FFC022"/>
  <path d="M97.55,38.23c2.43,2.43,4.41,4.06,5.84,5.61c0.95,1.03,2.69,0.56,2.97-0.82 c2.45-11.8,1.67-21.86,0-24.5c-0.8-1.26-2.29-1.59-3.65-1.13c-2.44,0.81-8.66,5.45-13.05,12.22c-0.51,0.79-0.32,1.85,0.46,2.38 C91.7,33.06,94.46,35.13,97.55,38.23z" fill="#FFD1D1"/>
  <path d="M55.67,77.75c-0.05-3.08,4.37-4.55,8.54-4.62c4.18-0.07,8.68,1.29,8.73,4.37c0.05,3.08-5.22,7.13-8.54,7.13 C61.09,84.63,55.73,80.82,55.67,77.75z"/>
  <g>
    <g>
      <path d="M6.7,71.03 c0.34,0.41,4.41,0.35,14.36,5.07" fill="none" stroke="#9E9E9E" stroke-linecap="round" stroke-miterlimit="10" stroke-width="3"/>
      <path d="M2.9,82.86 c0,0,6.42-2.24,17.46-0.28" fill="none" stroke="#9E9E9E" stroke-linecap="round" stroke-miterlimit="10" stroke-width="3"/>
      <path d="M8.81,92.29 c0,0,2.74-1.38,12.67-2.25" fill="none" stroke="#9E9E9E" stroke-linecap="round" stroke-miterlimit="10" stroke-width="3"/>
    </g>
    <g>
      <path d="M120.87,67.51 c0,0-3.41,0.33-13.94,6.34" fill="none" stroke="#9E9E9E" stroke-linecap="round" stroke-miterlimit="10" stroke-width="3"/>
      <path d="M122.42,78.49 c0,0-5.09-0.36-16.05,1.97" fill="none" stroke="#9E9E9E" stroke-linecap="round" stroke-miterlimit="10" stroke-width="3"/>
      <path d="M120.45,89.05 c0,0-4.83-1.71-14.78-2.25" fill="none" stroke="#9E9E9E" stroke-linecap="round" stroke-miterlimit="10" stroke-width="3"/>
    </g>
  </g>
  <path d="M96.09,66.37c-0.34,5.51-3.76,8.54-7.65,8.54s-7.04-3.88-7.04-8.66c0-4.78,3.28-8.71,7.65-8.47 C94.12,58.07,96.37,61.87,96.09,66.37z" fill="#000200"/>
  <path d="M46,65.81c0.78,5.61-1.58,9.03-5.49,9.82c-3.91,0.79-7.26-1.84-8.23-6.64 c-0.98-4.81,0.9-9.32,5.34-9.97C42.77,58.27,45.36,61.22,46,65.81z" fill="#000200"/>
  <path d="M44.99,85.16c-2.57,1.67,0.47,5.54,2.25,6.85c1.78,1.31,4.98,2.92,9.67,2.44c5.54-0.56,7.13-4.69,7.13-4.69 s1.97,4.6,8.82,4.79c6.95,0.19,9.1-3.57,10.04-4.69c0.94-1.13,1.88-4.04,0.28-5.16c-1.6-1.13-2.72,0.28-4.41,2.63 c-1.69,2.35-5.16,3.66-8.54,2.06s-3.57-7.04-3.57-7.04l-4.79,0.28c0,0-0.75,4.69-2.91,6.19c-2.16,1.5-7.32,1.88-9.48-1.41 C48.53,85.95,47.15,83.75,44.99,85.16z"/>
</svg>
